Catalina-dark/status/16/night-light-disabled-symbolic.svg

<?xml version="1.0" encoding="UTF-8" standalone="no"?>
<svg
   xmlns:dc="http://purl.org/dc/elements/1.1/"
   xmlns:cc="http://creativecommons.org/ns#"
   xmlns:rdf="http://www.w3.org/1999/02/22-rdf-syntax-ns#"
   xmlns:svg="http://www.w3.org/2000/svg"
   xmlns="http://www.w3.org/2000/svg"
   xmlns:sodipodi="http://sodipodi.sourceforge.net/DTD/sodipodi-0.dtd"
   xmlns:inkscape="http://www.inkscape.org/namespaces/inkscape"
   height="16"
   width="16"
   id="svg2"
   version="1.1"
   sodipodi:docname="night-light-disabled-symbolic.svg"
   inkscape:version="0.92.3 (2405546, 2018-03-11)">
  <sodipodi:namedview
     pagecolor="#ffffff"
     bordercolor="#666666"
     borderopacity="1"
     objecttolerance="10"
     gridtolerance="10"
     guidetolerance="10"
     inkscape:pageopacity="0"
     inkscape:pageshadow="2"
     inkscape:window-width="1635"
     inkscape:window-height="893"
     id="namedview7"
     showgrid="true"
     inkscape:zoom="22.627417"
     inkscape:cx="8.7460048"
     inkscape:cy="7.0965257"
     inkscape:window-x="0"
     inkscape:window-y="33"
     inkscape:window-maximized="0"
     inkscape:current-layer="svg2">
    <inkscape:grid
       type="xygrid"
       id="grid16" />
  </sodipodi:namedview>
  <metadata
     id="metadata12">
    <rdf:RDF>
      <cc:Work
         rdf:about="">
        <dc:format>image/svg+xml</dc:format>
        <dc:type
           rdf:resource="http://purl.org/dc/dcmitype/StillImage" />
        <dc:title></dc:title>
      </cc:Work>
    </rdf:RDF>
  </metadata>
  <defs
     id="defs10" />
  <path
     style="color:#000000;display:inline;overflow:visible;visibility:visible;opacity:0.4;vector-effect:none;fill:#666666;fill-opacity:1;fill-rule:nonzero;stroke:none;stroke-width:1;stroke-linecap:butt;stroke-linejoin:miter;stroke-miterlimit:4;stroke-dasharray:none;stroke-dashoffset:0;stroke-opacity:1;marker:none;enable-background:accumulate"
     d="M 2.4921875 2.8183594 L 1.7949219 3.5351562 L 12.683594 14.078125 L 13.378906 13.359375 L 11.109375 11.162109 C 11.662343 10.415093 12.000002 9.4996353 12 8.5 C 12 6.0170549 9.9829429 4 7.5 4 C 6.4481483 4 5.4965122 4.3800076 4.7324219 4.9882812 L 2.4921875 2.8183594 z M 7.4179688 4.8691406 L 7.4199219 4.8691406 C 7.4428229 4.8689247 7.4653802 4.8689247 7.4882812 4.8691406 L 7.4941406 4.8691406 C 6.9267316 5.2930238 6.5348788 5.8971512 6.3671875 6.5703125 L 5.3320312 5.5683594 C 5.9032125 5.146564 6.6133031 4.8845782 7.4179688 4.8691406 z M 3.6113281 6.2773438 C 3.2336976 6.9357193 3 7.6874911 3 8.5 C 3 10.982946 5.0170522 13 7.5 13 C 8.3644776 13 9.1655004 12.743861 9.8515625 12.320312 L 9.2304688 11.71875 C 7.6843824 12.549713 5.6022413 12.215798 4.4765625 10.564453 C 3.6702325 9.3816346 3.6744915 7.9926036 4.2324219 6.8808594 L 3.6113281 6.2773438 z M 10.853516 9.9101562 C 10.75461 10.148505 10.634381 10.368152 10.498047 10.568359 L 10.134766 10.21875 C 10.385669 10.147365 10.627113 10.044799 10.853516 9.9101562 z "
     id="path28" />
  <rect
     style="opacity:0.4;fill:#666666;fill-opacity:1;fill-rule:nonzero;stroke:none;stroke-width:1;stroke-linecap:round;stroke-linejoin:round;stroke-miterlimit:4;stroke-dasharray:none;stroke-dashoffset:0;stroke-opacity:1"
     id="rect828"
     width="2"
     height="1"
     x="0"
     y="8"
     ry="0.33898306" />
  <rect
     ry="0.33898306"
     y="8"
     x="13"
     height="1"
     width="2"
     id="rect830"
     style="opacity:0.4;fill:#666666;fill-opacity:1;fill-rule:nonzero;stroke:none;stroke-width:1;stroke-linecap:round;stroke-linejoin:round;stroke-miterlimit:4;stroke-dasharray:none;stroke-dashoffset:0;stroke-opacity:1" />
  <rect
     style="opacity:0.4;fill:#666666;fill-opacity:1;fill-rule:nonzero;stroke:none;stroke-width:1;stroke-linecap:round;stroke-linejoin:round;stroke-miterlimit:4;stroke-dasharray:none;stroke-dashoffset:0;stroke-opacity:1"
     id="rect832"
     width="2"
     height="1"
     x="-3"
     y="7"
     ry="0.33898306"
     transform="rotate(-90)" />
  <rect
     transform="rotate(-90)"
     ry="0.33898306"
     y="7"
     x="-16"
     height="1"
     width="2"
     id="rect834"
     style="opacity:0.4;fill:#666666;fill-opacity:1;fill-rule:nonzero;stroke:none;stroke-width:1;stroke-linecap:round;stroke-linejoin:round;stroke-miterlimit:4;stroke-dasharray:none;stroke-dashoffset:0;stroke-opacity:1" />
  <rect
     style="opacity:0.4;fill:#666666;fill-opacity:1;fill-rule:nonzero;stroke:none;stroke-width:1;stroke-linecap:round;stroke-linejoin:round;stroke-miterlimit:4;stroke-dasharray:none;stroke-dashoffset:0;stroke-opacity:1"
     id="rect4560"
     width="2"
     height="1"
     x="4.7654757"
     y="-12.167262"
     ry="0.33898306"
     transform="matrix(0.70710678,-0.70710678,-0.70710678,-0.70710678,0,0)" />
  <rect
     style="opacity:0.4;fill:#666666;fill-opacity:1;fill-rule:nonzero;stroke:none;stroke-width:1;stroke-linecap:round;stroke-linejoin:round;stroke-miterlimit:4;stroke-dasharray:none;stroke-dashoffset:0;stroke-opacity:1"
     id="rect4564"
     width="2"
     height="1"
     x="6.1834173"
     y="10.548541"
     ry="0.33898306"
     transform="matrix(-0.70710678,0.70710678,0.70710678,0.70710678,0,0)" />
</svg>

<svg width="16" height="16" version="1.1" xmlns="http://www.w3.org/2000/svg">
<path d="m2.4922 2.8184-0.69727 0.7168 10.889 10.543 0.69531-0.71875-2.2695-2.1973c0.55297-0.74702 0.89063-1.6625 0.89062-2.6621 0-2.4829-2.0171-4.5-4.5-4.5-1.0519 0-2.0035 0.38001-2.7676 0.98828l-2.2402-2.1699zm4.9258 2.0508h0.0019531c0.022901-2.159e-4 0.045458-2.159e-4 0.068359 0h0.0058594c-0.56741 0.42388-0.95926 1.028-1.127 1.7012l-1.0352-1.002c0.57118-0.4218 1.2813-0.68378 2.0859-0.69922zm-3.8066 1.4082c-0.37763 0.65838-0.61133 1.4101-0.61133 2.2227 0 2.4829 2.0171 4.5 4.5 4.5 0.86448 0 1.6655-0.25614 2.3516-0.67969l-0.62109-0.60156c-1.5461 0.83096-3.6282 0.49705-4.7539-1.1543-0.80633-1.1828-0.80207-2.5718-0.24414-3.6836l-0.62109-0.60352zm7.2422 3.6328c-0.098906 0.23835-0.21914 0.458-0.35547 0.6582l-0.36328-0.34961c0.2509-0.071385 0.49235-0.17395 0.71875-0.30859z" color="#000000" fill="#666" opacity=".4"/>
<rect y="8" width="2" height="1" ry=".33898" fill="#666" opacity=".4"/>
<rect x="13" y="8" width="2" height="1" ry=".33898" fill="#666" opacity=".4"/>
<rect transform="rotate(-90)" x="-3" y="7" width="2" height="1" ry=".33898" fill="#666" opacity=".4"/>
<rect transform="rotate(-90)" x="-16" y="7" width="2" height="1" ry=".33898" fill="#666" opacity=".4"/>
<rect transform="matrix(.70711 -.70711 -.70711 -.70711 0 0)" x="4.7655" y="-12.167" width="2" height="1" ry=".33898" fill="#666" opacity=".4"/>
<rect transform="matrix(-.70711 .70711 .70711 .70711 0 0)" x="6.1834" y="10.549" width="2" height="1" ry=".33898" fill="#666" opacity=".4"/>
</svg>
